X: 37039
T: Silver Bullet, The
R: reel
M: 4/4
K: Amajor
|:a|fecB AFEF|ABcef2fa|fecBABce|fecAB2Ba
fecB AFEF|ABcef2fa|feaf efcf|ecBcA2:|
|:d|ceec BAAB|caaef2fa|ceec BcAf|ecBAB2Bd|
ceec BAAB|caae f2fa|feaf efcf|ecBcA2:|

